storage/app/icons/phosphoricons/fill/dots-nine-fill.svg

<svg xmlns="http://www.w3.org/2000/svg" fill="currentColor" viewBox="0 0 256 256"><path d="M208 32H48a16 16 0 0 0-16 16v160a16 16 0 0 0 16 16h160a16 16 0 0 0 16-16V48a16 16 0 0 0-16-16M76 192a12 12 0 1 1 12-12 12 12 0 0 1-12 12m0-52a12 12 0 1 1 12-12 12 12 0 0 1-12 12m0-52a12 12 0 1 1 12-12 12 12 0 0 1-12 12m52 104a12 12 0 1 1 12-12 12 12 0 0 1-12 12m0-52a12 12 0 1 1 12-12 12 12 0 0 1-12 12m0-52a12 12 0 1 1 12-12 12 12 0 0 1-12 12m52 104a12 12 0 1 1 12-12 12 12 0 0 1-12 12m0-52a12 12 0 1 1 12-12 12 12 0 0 1-12 12m0-52a12 12 0 1 1 12-12 12 12 0 0 1-12 12"/></svg>

<svg xmlns="http://www.w3.org/2000/svg" viewBox="0 0 256 256" fill="currentColor"><path d="M208,32H48A16,16,0,0,0,32,48V208a16,16,0,0,0,16,16H208a16,16,0,0,0,16-16V48A16,16,0,0,0,208,32ZM76,192a12,12,0,1,1,12-12A12,12,0,0,1,76,192Zm0-52a12,12,0,1,1,12-12A12,12,0,0,1,76,140Zm0-52A12,12,0,1,1,88,76,12,12,0,0,1,76,88Zm52,104a12,12,0,1,1,12-12A12,12,0,0,1,128,192Zm0-52a12,12,0,1,1,12-12A12,12,0,0,1,128,140Zm0-52a12,12,0,1,1,12-12A12,12,0,0,1,128,88Zm52,104a12,12,0,1,1,12-12A12,12,0,0,1,180,192Zm0-52a12,12,0,1,1,12-12A12,12,0,0,1,180,140Zm0-52a12,12,0,1,1,12-12A12,12,0,0,1,180,88Z"/></svg>
